X:1
T:Title
%%score { ( 1 4 ) | ( 2 3 ) }
L:1/8
M:4/4
K:Ab
V:1 treble nm="Grand Piano"
V:4 treble 
V:2 bass 
V:3 bass 
V:1
 z4 z2[Q:1/4=94] [CE][B,D] | [A,C]2 [CE][CA] [Ec]2 [Fd][Ec] | [DF] [FB]2 [Fc] [Fd]2 [DF]2 | %3
 G2 GA B c2 d | c6 [CE][B,D] | [A,C]2 [CE][CA] [Ec]2 [Fd][Ec] |[M:3/4] [DF] [FB]2 [Fc] [Fd]2 | %7
[M:1/4] [DF]2 |[M:4/4] G2 GG [=Dc]2 [DB]D |[M:3/4] E6 |[M:1/4] cd |[M:4/4] c B2 F G2 cG | %12
 [DB] [CA]2 [CF] [CE]2 E2 | A2 Bc .[=DB]2 [B,DG][DA] | B6[K:bass][K:treble] z2 | c B2 F G2 cG | %16
 [DB] [CA]2 [CF] [CE]2 E2 | A2 [FB][Fc] [Fd]2 [Ec][DB] |[M:3/4] [CA]6 |] %19
V:2
 z4 z2 [A,,A,][A,,A,] | [A,,E,]2 [A,,A,][A,,E,] [A,,A,]2 [A,,A,][A,,A,] | %2
 [D,A,] [D,D]2 [C,=A,] [B,,B,]2 [B,,B,]2 | [E,B,D]2 [E,B,D][E,A,C] [E,G,E] [E,A,E]2 [E,B,E] | %4
 [A,E]6 [A,,A,][A,,A,] | [A,,E,]2 [A,,A,][A,,E,] [A,,A,]2 [A,,A,][A,,A,] | %6
[M:3/4] [D,A,] [D,D]2 [C,=A,] [B,,B,]2 |[M:1/4] [B,,B,]2 | %8
[M:4/4] [E,B,D]2 [E,B,D][E,B,D] [B,,A,]2 [B,,A,][B,,A,B,] |[M:3/4] [E,G,B,]6 | %10
[M:1/4][K:treble] [A,E][A,F] |[M:4/4][K:bass] [E,A,E] [E,G,D]2 [E,G,D] [E,B,D]2 [E,G,D][E,B,D] | %12
 [A,,A,] [A,,A,]2 [A,,A,] [A,,A,]2 [A,C]2 | [F,A,C]2 [F,A,C][F,A,C] z FB,,[B,,F,] | %14
 [G,D]6[K:treble] [A,E][A,F] | [E,A,E] [E,G,D]2 [E,G,D] [E,B,D]2 [E,G,D][E,B,D] | %16
 [A,,A,] [A,,A,]2 [A,,A,] [A,,A,]2 [A,C]2 | [F,CF]2 [D,B,][C,=A,] [B,,B,]2 [E,G,][E,G,] | %18
[M:3/4] [A,,A,]6 |] %19
V:3
 x8 | x8 | x8 | x8 | x8 | x8 |[M:3/4] x6 |[M:1/4] x2 |[M:4/4] x8 |[M:3/4] x6 | %10
[M:1/4][K:treble] x2 |[M:4/4][K:bass] x8 | x8 | z4 [B,,A,]2 z2 | E,2 z2 z4[K:treble] | x8 | x8 | %17
 x8 |[M:3/4] x6 |] %19
V:4
 x8 | x8 | x8 | x8 | x8 | x8 |[M:3/4] x6 |[M:1/4] x2 |[M:4/4] x8 |[M:3/4] x6 |[M:1/4] x2 | %11
[M:4/4] x8 | x8 | x8 | z2[K:bass] =E,2 _E,2[K:treble] cd | x8 | x8 | x8 |[M:3/4] x6 |] %19

